X:1
T:Title
%%score { 1 | 2 }
L:1/8
M:3/4
K:Bb
V:1 treble nm="Grand Piano"
V:2 bass 
V:1
 z2 z[Q:1/4=100] [DF] [DF][DF] | [DF]3 [DF] [B,D][CE] | [EG]2 [DF]2 [DB][DB] | A3 G EG | %4
[M:2/4] [EG]2 [DF]2 |[M:1/4] [DF][DF] |[M:3/4] [DF]3 [DF] [B,D][CE] | [EG]2 [DF]2 [DF][DG] | %8
 A3 c GA |[M:2/4] [DB]4 |[M:1/4] [DF][DB] |[M:3/4] [Fd]3 [DB] [B,D][DF] | [FA]2 G2 GG | F3 F CD | %14
[M:2/4] E4 |[M:1/4] FF |[M:3/4] [DF]3 [DF] [B,D][CE] | [EG]2 [DF]2 [DF][DB] | A3 G Fc | %19
[M:3/8] [DB]3 |] %20
V:2
 z2 z [B,,B,] [B,,B,][B,,B,] | [B,,B,]3 [B,,B,] [B,,F,][B,,F,] | [B,,B,]2 [B,,B,]2 [B,,B,][B,,B,] | %3
 [F,CE]3 [F,B,E] [F,A,C][F,A,E] |[M:2/4] [B,,B,]4 |[M:1/4] [B,,B,][B,,B,] | %6
[M:3/4] [B,,B,]3 [B,,B,] [B,,F,][B,,F,] | [B,,B,]2 [B,,B,]2 [B,,B,][B,,B,] | %8
 [F,CE]3 [F,A,E] [F,A,E][F,CE] |[M:2/4] [B,,B,]4 |[M:1/4] [B,,B,][B,,B,] | %11
[M:3/4] [B,,B,]3 [B,,B,] [B,,F,][B,,B,] | [E,B,]2 [E,B,E]2 [E,B,E][E,B,E] | %13
 [F,A,C]3 [F,A,C] [F,A,][F,B,] |[M:2/4] [F,A,C]4 |[M:1/4] [F,CE][F,CE] | %16
[M:3/4] [B,,B,]3 [B,,B,] [B,,F,][B,,B,] | [B,,B,]2 [B,,B,]2 [B,,B,][B,,B,] | %18
 [F,CE]3 [F,B,E] [F,A,E][F,A,E] |[M:3/8] [B,,B,]3 |] %20

